src/lib/images/svgs/icon-seo.svg

<?xml version="1.0" encoding="UTF-8"?>
<svg xmlns="http://www.w3.org/2000/svg" xmlns:xlink="http://www.w3.org/1999/xlink" width="64px" height="px" viewBox="0 0 64 64" version="1.1">
<g id="surface1">
<path style=" stroke:none;fill-rule:nonzero;fill:rgb(93.72549%,26.666667%,26.666667%);fill-opacity:1;" d="M 56 57 L 8 57 C 7.449219 57 7 56.550781 7 56 L 7 8 C 7 7.449219 7.449219 7 8 7 L 56 7 C 56.550781 7 57 7.449219 57 8 L 57 56 C 57 56.550781 56.550781 57 56 57 Z M 9 55 L 55 55 L 55 9 L 9 9 Z M 9 55 "/>
<path style=" stroke:none;fill-rule:nonzero;fill:rgb(93.72549%,26.666667%,26.666667%);fill-opacity:1;" d="M 56 15 L 8 15 C 7.449219 15 7 14.550781 7 14 C 7 13.449219 7.449219 13 8 13 L 56 13 C 56.550781 13 57 13.449219 57 14 C 57 14.550781 56.550781 15 56 15 Z M 56 15 "/>
<path style=" stroke:none;fill-rule:nonzero;fill:rgb(93.72549%,26.666667%,26.666667%);fill-opacity:1;" d="M 13 11 C 13 11.550781 12.550781 12 12 12 C 11.449219 12 11 11.550781 11 11 C 11 10.449219 11.449219 10 12 10 C 12.550781 10 13 10.449219 13 11 Z M 13 11 "/>
<path style=" stroke:none;fill-rule:nonzero;fill:rgb(93.72549%,26.666667%,26.666667%);fill-opacity:1;" d="M 16 11 C 16 11.550781 15.550781 12 15 12 C 14.449219 12 14 11.550781 14 11 C 14 10.449219 14.449219 10 15 10 C 15.550781 10 16 10.449219 16 11 Z M 16 11 "/>
<path style=" stroke:none;fill-rule:nonzero;fill:rgb(93.72549%,26.666667%,26.666667%);fill-opacity:1;" d="M 19 11 C 19 11.550781 18.550781 12 18 12 C 17.449219 12 17 11.550781 17 11 C 17 10.449219 17.449219 10 18 10 C 18.550781 10 19 10.449219 19 11 Z M 19 11 "/>
<path style=" stroke:none;fill-rule:nonzero;fill:rgb(93.72549%,26.666667%,26.666667%);fill-opacity:1;" d="M 26 31 L 20 31 C 19.449219 31 19 30.550781 19 30 C 19 29.449219 19.449219 29 20 29 L 25 29 L 25 26 L 20 26 C 19.449219 26 19 25.550781 19 25 L 19 20 C 19 19.449219 19.449219 19 20 19 L 26 19 C 26.550781 19 27 19.449219 27 20 C 27 20.550781 26.550781 21 26 21 L 21 21 L 21 24 L 26 24 C 26.550781 24 27 24.449219 27 25 L 27 30 C 27 30.550781 26.550781 31 26 31 Z M 26 31 "/>
<path style=" stroke:none;fill-rule:nonzero;fill:rgb(93.72549%,26.666667%,26.666667%);fill-opacity:1;" d="M 30 31 C 29.449219 31 29 30.550781 29 30 L 29 20 C 29 19.449219 29.449219 19 30 19 C 30.550781 19 31 19.449219 31 20 L 31 30 C 31 30.550781 30.550781 31 30 31 Z M 30 31 "/>
<path style=" stroke:none;fill-rule:nonzero;fill:rgb(93.72549%,26.666667%,26.666667%);fill-opacity:1;" d="M 35 21 L 30 21 C 29.449219 21 29 20.550781 29 20 C 29 19.449219 29.449219 19 30 19 L 35 19 C 35.550781 19 36 19.449219 36 20 C 36 20.550781 35.550781 21 35 21 Z M 35 21 "/>
<path style=" stroke:none;fill-rule:nonzero;fill:rgb(93.72549%,26.666667%,26.666667%);fill-opacity:1;" d="M 35 26 L 30 26 C 29.449219 26 29 25.550781 29 25 C 29 24.449219 29.449219 24 30 24 L 35 24 C 35.550781 24 36 24.449219 36 25 C 36 25.550781 35.550781 26 35 26 Z M 35 26 "/>
<path style=" stroke:none;fill-rule:nonzero;fill:rgb(93.72549%,26.666667%,26.666667%);fill-opacity:1;" d="M 35 31 L 30 31 C 29.449219 31 29 30.550781 29 30 C 29 29.449219 29.449219 29 30 29 L 35 29 C 35.550781 29 36 29.449219 36 30 C 36 30.550781 35.550781 31 35 31 Z M 35 31 "/>
<path style=" stroke:none;fill-rule:nonzero;fill:rgb(93.72549%,26.666667%,26.666667%);fill-opacity:1;" d="M 44 31 L 38 31 C 37.449219 31 37 30.550781 37 30 L 37 20 C 37 19.449219 37.449219 19 38 19 L 44 19 C 44.550781 19 45 19.449219 45 20 L 45 30 C 45 30.550781 44.550781 31 44 31 Z M 39 29 L 43 29 L 43 21 L 39 21 Z M 39 29 "/>
<path style=" stroke:none;fill-rule:nonzero;fill:rgb(93.72549%,26.666667%,26.666667%);fill-opacity:1;" d="M 19 36 L 12 36 C 11.449219 36 11 35.550781 11 35 C 11 34.449219 11.449219 34 12 34 L 19 34 C 19.550781 34 20 34.449219 20 35 C 20 35.550781 19.550781 36 19 36 Z M 19 36 "/>
<path style=" stroke:none;fill-rule:nonzero;fill:rgb(93.72549%,26.666667%,26.666667%);fill-opacity:1;" d="M 30 36 L 23 36 C 22.449219 36 22 35.550781 22 35 C 22 34.449219 22.449219 34 23 34 L 30 34 C 30.550781 34 31 34.449219 31 35 C 31 35.550781 30.550781 36 30 36 Z M 30 36 "/>
<path style=" stroke:none;fill-rule:nonzero;fill:rgb(93.72549%,26.666667%,26.666667%);fill-opacity:1;" d="M 38 36 L 34 36 C 33.449219 36 33 35.550781 33 35 C 33 34.449219 33.449219 34 34 34 L 38 34 C 38.550781 34 39 34.449219 39 35 C 39 35.550781 38.550781 36 38 36 Z M 38 36 "/>
<path style=" stroke:none;fill-rule:nonzero;fill:rgb(93.72549%,26.666667%,26.666667%);fill-opacity:1;" d="M 52 36 L 42 36 C 41.449219 36 41 35.550781 41 35 C 41 34.449219 41.449219 34 42 34 L 52 34 C 52.550781 34 53 34.449219 53 35 C 53 35.550781 52.550781 36 52 36 Z M 52 36 "/>
<path style=" stroke:none;fill-rule:nonzero;fill:rgb(93.72549%,26.666667%,26.666667%);fill-opacity:1;" d="M 30 40 L 12 40 C 11.449219 40 11 39.550781 11 39 C 11 38.449219 11.449219 38 12 38 L 30 38 C 30.550781 38 31 38.449219 31 39 C 31 39.550781 30.550781 40 30 40 Z M 30 40 "/>
<path style=" stroke:none;fill-rule:nonzero;fill:rgb(93.72549%,26.666667%,26.666667%);fill-opacity:1;" d="M 38 40 L 34 40 C 33.449219 40 33 39.550781 33 39 C 33 38.449219 33.449219 38 34 38 L 38 38 C 38.550781 38 39 38.449219 39 39 C 39 39.550781 38.550781 40 38 40 Z M 38 40 "/>
<path style=" stroke:none;fill-rule:nonzero;fill:rgb(93.72549%,26.666667%,26.666667%);fill-opacity:1;" d="M 52 40 L 42 40 C 41.449219 40 41 39.550781 41 39 C 41 38.449219 41.449219 38 42 38 L 52 38 C 52.550781 38 53 38.449219 53 39 C 53 39.550781 52.550781 40 52 40 Z M 52 40 "/>
<path style=" stroke:none;fill-rule:nonzero;fill:rgb(93.72549%,26.666667%,26.666667%);fill-opacity:1;" d="M 19 44 L 12 44 C 11.449219 44 11 43.550781 11 43 C 11 42.449219 11.449219 42 12 42 L 19 42 C 19.550781 42 20 42.449219 20 43 C 20 43.550781 19.550781 44 19 44 Z M 19 44 "/>
<path style=" stroke:none;fill-rule:nonzero;fill:rgb(93.72549%,26.666667%,26.666667%);fill-opacity:1;" d="M 38 44 L 23 44 C 22.449219 44 22 43.550781 22 43 C 22 42.449219 22.449219 42 23 42 L 38 42 C 38.550781 42 39 42.449219 39 43 C 39 43.550781 38.550781 44 38 44 Z M 38 44 "/>
<path style=" stroke:none;fill-rule:nonzero;fill:rgb(93.72549%,26.666667%,26.666667%);fill-opacity:1;" d="M 52 44 L 42 44 C 41.449219 44 41 43.550781 41 43 C 41 42.449219 41.449219 42 42 42 L 52 42 C 52.550781 42 53 42.449219 53 43 C 53 43.550781 52.550781 44 52 44 Z M 52 44 "/>
<path style=" stroke:none;fill-rule:nonzero;fill:rgb(93.72549%,26.666667%,26.666667%);fill-opacity:1;" d="M 19 48 L 12 48 C 11.449219 48 11 47.550781 11 47 C 11 46.449219 11.449219 46 12 46 L 19 46 C 19.550781 46 20 46.449219 20 47 C 20 47.550781 19.550781 48 19 48 Z M 19 48 "/>
<path style=" stroke:none;fill-rule:nonzero;fill:rgb(93.72549%,26.666667%,26.666667%);fill-opacity:1;" d="M 52 48 L 23 48 C 22.449219 48 22 47.550781 22 47 C 22 46.449219 22.449219 46 23 46 L 52 46 C 52.550781 46 53 46.449219 53 47 C 53 47.550781 52.550781 48 52 48 Z M 52 48 "/>
<path style=" stroke:none;fill-rule:nonzero;fill:rgb(93.72549%,26.666667%,26.666667%);fill-opacity:1;" d="M 38 52 L 12 52 C 11.449219 52 11 51.550781 11 51 C 11 50.449219 11.449219 50 12 50 L 38 50 C 38.550781 50 39 50.449219 39 51 C 39 51.550781 38.550781 52 38 52 Z M 38 52 "/>
<path style=" stroke:none;fill-rule:nonzero;fill:rgb(93.72549%,26.666667%,26.666667%);fill-opacity:1;" d="M 52 52 L 42 52 C 41.449219 52 41 51.550781 41 51 C 41 50.449219 41.449219 50 42 50 L 52 50 C 52.550781 50 53 50.449219 53 51 C 53 51.550781 52.550781 52 52 52 Z M 52 52 "/>
</g>
</svg>

<svg xmlns="http://www.w3.org/2000/svg" width="64" height="px" viewBox="0 0 64 64"><path d="M56 57H8c-.55 0-1-.45-1-1V8c0-.55.45-1 1-1h48c.55 0 1 .45 1 1v48c0 .55-.45 1-1 1ZM9 55h46V9H9Zm0 0" style="stroke:none;fill-rule:nonzero;fill:#ef4444;fill-opacity:1"/><path d="M56 15H8c-.55 0-1-.45-1-1s.45-1 1-1h48c.55 0 1 .45 1 1s-.45 1-1 1ZM13 11c0 .55-.45 1-1 1s-1-.45-1-1 .45-1 1-1 1 .45 1 1ZM16 11c0 .55-.45 1-1 1s-1-.45-1-1 .45-1 1-1 1 .45 1 1ZM19 11c0 .55-.45 1-1 1s-1-.45-1-1 .45-1 1-1 1 .45 1 1ZM26 31h-6c-.55 0-1-.45-1-1s.45-1 1-1h5v-3h-5c-.55 0-1-.45-1-1v-5c0-.55.45-1 1-1h6c.55 0 1 .45 1 1s-.45 1-1 1h-5v3h5c.55 0 1 .45 1 1v5c0 .55-.45 1-1 1ZM30 31c-.55 0-1-.45-1-1V20c0-.55.45-1 1-1s1 .45 1 1v10c0 .55-.45 1-1 1Zm0 0" style="stroke:none;fill-rule:nonzero;fill:#ef4444;fill-opacity:1"/><path d="M35 21h-5c-.55 0-1-.45-1-1s.45-1 1-1h5c.55 0 1 .45 1 1s-.45 1-1 1ZM35 26h-5c-.55 0-1-.45-1-1s.45-1 1-1h5c.55 0 1 .45 1 1s-.45 1-1 1ZM35 31h-5c-.55 0-1-.45-1-1s.45-1 1-1h5c.55 0 1 .45 1 1s-.45 1-1 1ZM44 31h-6c-.55 0-1-.45-1-1V20c0-.55.45-1 1-1h6c.55 0 1 .45 1 1v10c0 .55-.45 1-1 1Zm-5-2h4v-8h-4ZM19 36h-7c-.55 0-1-.45-1-1s.45-1 1-1h7c.55 0 1 .45 1 1s-.45 1-1 1ZM30 36h-7c-.55 0-1-.45-1-1s.45-1 1-1h7c.55 0 1 .45 1 1s-.45 1-1 1ZM38 36h-4c-.55 0-1-.45-1-1s.45-1 1-1h4c.55 0 1 .45 1 1s-.45 1-1 1ZM52 36H42c-.55 0-1-.45-1-1s.45-1 1-1h10c.55 0 1 .45 1 1s-.45 1-1 1ZM30 40H12c-.55 0-1-.45-1-1s.45-1 1-1h18c.55 0 1 .45 1 1s-.45 1-1 1ZM38 40h-4c-.55 0-1-.45-1-1s.45-1 1-1h4c.55 0 1 .45 1 1s-.45 1-1 1ZM52 40H42c-.55 0-1-.45-1-1s.45-1 1-1h10c.55 0 1 .45 1 1s-.45 1-1 1ZM19 44h-7c-.55 0-1-.45-1-1s.45-1 1-1h7c.55 0 1 .45 1 1s-.45 1-1 1ZM38 44H23c-.55 0-1-.45-1-1s.45-1 1-1h15c.55 0 1 .45 1 1s-.45 1-1 1ZM52 44H42c-.55 0-1-.45-1-1s.45-1 1-1h10c.55 0 1 .45 1 1s-.45 1-1 1ZM19 48h-7c-.55 0-1-.45-1-1s.45-1 1-1h7c.55 0 1 .45 1 1s-.45 1-1 1ZM52 48H23c-.55 0-1-.45-1-1s.45-1 1-1h29c.55 0 1 .45 1 1s-.45 1-1 1ZM38 52H12c-.55 0-1-.45-1-1s.45-1 1-1h26c.55 0 1 .45 1 1s-.45 1-1 1ZM52 52H42c-.55 0-1-.45-1-1s.45-1 1-1h10c.55 0 1 .45 1 1s-.45 1-1 1Zm0 0" style="stroke:none;fill-rule:nonzero;fill:#ef4444;fill-opacity:1"/></svg>
